ix/folder-add_broken.svg

<svg viewBox="0 0 24 24" fill="none" xmlns="http://www.w3.org/2000/svg" height="1em" width="1em">
  <path d="M12.0605 16.5V11.5" stroke="#292D32" stroke-width="1.5" stroke-miterlimit="10" stroke-linecap="round" stroke-linejoin="round"/>
  <path d="M14.5 14H9.5" stroke="#292D32" stroke-width="1.5" stroke-miterlimit="10" stroke-linecap="round" stroke-linejoin="round"/>
  <path d="M2 13.02V7C2 3 3 2 7 2H8.5C10 2 10.33 2.44 10.9 3.2L12.4 5.2C12.78 5.7 13 6 14 6H17C21 6 22 7 22 11" stroke="#292D32" stroke-width="1.5" stroke-miterlimit="10" stroke-linecap="round" stroke-linejoin="round"/>
  <path d="M22 14.99V17C22 21 21 22 17 22H7C3 22 2 21 2 17" stroke="#292D32" stroke-width="1.5" stroke-miterlimit="10" stroke-linecap="round" stroke-linejoin="round"/>
</svg>

<svg viewBox="0 0 24 24" fill="none" xmlns="http://www.w3.org/2000/svg" height="1em" width="1em">
  <path d="M12.06 16.5v-5M14.5 14h-5M2 13.02V7c0-4 1-5 5-5h1.5c1.5 0 1.83.44 2.4 1.2l1.5 2c.38.5.6.8 1.6.8h3c4 0 5 1 5 5m0 3.99V17c0 4-1 5-5 5H7c-4 0-5-1-5-5" stroke="#292D32" stroke-width="1.5" stroke-miterlimit="10" stroke-linecap="round" stroke-linejoin="round"/>
</svg>
